X: 1
T: I Saw Three Ships
R: jig
Z: 2018 John Chambers <jc:trillian.mit.edu>
M: 6/8
L: 1/8
K: F
|: A |\
"F"F2F G2A | c2A "C7"G2B | "F"A2F F2A | "C7"G2E C2C |\
"F"F2F G2A | c2A "C7"G2B | "F"A2F FGA | "C7"G3 "F"F2 :|
|: F |\
"F"F2F "Bb"F2d | "C7"c2B "F"A2F | "C7"GAB "F"A2F | "C7"GAB "F"A2F |\
"F"F2F "Bb"F2d | "C7"c2B "F"A2F | "Bb"dcB "F"AGF | "C7"G3 "F"A2 :|
